Numix-Light/16/status/indicator-keyboard-De-2.svg

<?xml version="1.0" encoding="UTF-8" standalone="no"?>
<svg
   xmlns:dc="http://purl.org/dc/elements/1.1/"
   xmlns:cc="http://creativecommons.org/ns#"
   xmlns:rdf="http://www.w3.org/1999/02/22-rdf-syntax-ns#"
   xmlns:svg="http://www.w3.org/2000/svg"
   xmlns="http://www.w3.org/2000/svg"
   xmlns:sodipodi="http://sodipodi.sourceforge.net/DTD/sodipodi-0.dtd"
   xmlns:inkscape="http://www.inkscape.org/namespaces/inkscape"
   viewBox="0 0 16 16"
   id="svg2"
   version="1.1"
   inkscape:version="0.91 r13725"
   sodipodi:docname="indicator-keyboard-De-2.svg">
  <metadata
     id="metadata14">
    <rdf:RDF>
      <cc:Work
         rdf:about="">
        <dc:format>image/svg+xml</dc:format>
        <dc:type
           rdf:resource="http://purl.org/dc/dcmitype/StillImage" />
      </cc:Work>
    </rdf:RDF>
  </metadata>
  <defs
     id="defs12" />
  <sodipodi:namedview
     pagecolor="#ffffff"
     bordercolor="#666666"
     borderopacity="1"
     objecttolerance="10"
     gridtolerance="10"
     guidetolerance="10"
     inkscape:pageopacity="0"
     inkscape:pageshadow="2"
     inkscape:window-width="459"
     inkscape:window-height="369"
     id="namedview10"
     showgrid="false"
     inkscape:zoom="14.75"
     inkscape:cx="8"
     inkscape:cy="8"
     inkscape:window-x="65"
     inkscape:window-y="24"
     inkscape:window-maximized="0"
     inkscape:current-layer="svg2" />
  <path
     style="fill:#353535;fill-opacity:1"
     d="M 1.5996094 0 C 0.71320937 2.9605947e-16 0 0.71320937 0 1.5996094 L 0 14.400391 C 2.9605947e-16 15.286791 0.71320937 16 1.5996094 16 L 14.400391 16 C 15.286791 16 16 15.286791 16 14.400391 L 16 1.5996094 C 16 0.71320937 15.286791 0 14.400391 0 L 1.5996094 0 z M 2.8964844 4.8046875 C 3.4004844 4.8046875 3.8632031 4.8719062 4.2832031 5.0039062 C 4.7032031 5.1359063 5.0632812 5.3336562 5.3632812 5.5976562 C 5.6692812 5.8616562 5.9062187 6.1918906 6.0742188 6.5878906 C 6.2422188 6.9838906 6.3261719 7.4446562 6.3261719 7.9726562 C 6.3261719 8.5066563 6.2422187 8.9711875 6.0742188 9.3671875 C 5.9062188 9.7631875 5.6692812 10.093422 5.3632812 10.357422 C 5.0632813 10.621422 4.7032031 10.819172 4.2832031 10.951172 C 3.8632031 11.083172 3.4004844 11.150391 2.8964844 11.150391 C 2.6444844 11.150391 2.3814687 11.135469 2.1054688 11.105469 C 1.8294687 11.081469 1.5869531 11.042281 1.3769531 10.988281 L 1.3769531 4.9765625 C 1.5869531 4.9165625 1.8294687 4.8736094 2.1054688 4.8496094 C 2.3814688 4.8196094 2.6444844 4.8046875 2.8964844 4.8046875 z M 2.96875 5.3359375 C 2.64475 5.3359375 2.4078125 5.3452812 2.2578125 5.3632812 C 2.1138125 5.3812812 2.0242813 5.3924375 1.9882812 5.3984375 L 1.9882812 10.556641 C 2.0242812 10.562641 2.1138125 10.573797 2.2578125 10.591797 C 2.4078125 10.609797 2.64475 10.619141 2.96875 10.619141 C 3.41875 10.619141 3.8124375 10.559453 4.1484375 10.439453 C 4.4844375 10.313453 4.7661406 10.136203 4.9941406 9.9082031 C 5.2221406 9.6802031 5.3938125 9.4040781 5.5078125 9.0800781 C 5.6218125 8.7500781 5.6777344 8.3806562 5.6777344 7.9726562 C 5.6777344 7.5646563 5.6218125 7.199 5.5078125 6.875 C 5.3938125 6.551 5.2221406 6.274875 4.9941406 6.046875 C 4.7661406 5.818875 4.4844375 5.6453906 4.1484375 5.5253906 C 3.8124375 5.3993906 3.41875 5.3359375 2.96875 5.3359375 z M 9.40625 6.3359375 C 9.9762501 6.3359375 10.427672 6.5205781 10.763672 6.8925781 C 11.105672 7.2645781 11.277344 7.8373281 11.277344 8.6113281 C 11.277344 8.6593281 11.273578 8.7078594 11.267578 8.7558594 C 11.267578 8.8038594 11.265766 8.848625 11.259766 8.890625 L 7.9921875 8.890625 C 8.0101875 9.460625 8.1520156 9.8990779 8.4160156 10.205078 C 8.6800156 10.511078 9.0997812 10.664062 9.6757812 10.664062 C 9.9937813 10.664062 10.245641 10.634219 10.431641 10.574219 C 10.617641 10.514219 10.751937 10.463875 10.835938 10.421875 L 10.945312 10.925781 C 10.861313 10.973781 10.700797 11.029703 10.466797 11.095703 C 10.238797 11.161703 9.9702032 11.195312 9.6582031 11.195312 C 9.2502031 11.195312 8.9012812 11.135625 8.6132812 11.015625 C 8.3252812 10.895625 8.0883438 10.727719 7.9023438 10.511719 C 7.7163437 10.295719 7.5820469 10.040094 7.4980469 9.7460938 C 7.4140469 9.4460938 7.3710938 9.119625 7.3710938 8.765625 C 7.3710938 8.357625 7.4289688 8.003125 7.5429688 7.703125 C 7.6629687 7.397125 7.8159531 7.1415 8.0019531 6.9375 C 8.1939531 6.7335 8.4103906 6.5842812 8.6503906 6.4882812 C 8.8963906 6.3862812 9.14825 6.3359375 9.40625 6.3359375 z M 9.4140625 6.8574219 C 9.2040625 6.8574219 9.0156562 6.8984219 8.8476562 6.9824219 C 8.6856563 7.0664219 8.5420156 7.1802188 8.4160156 7.3242188 C 8.2960156 7.4622187 8.1989531 7.6245469 8.1269531 7.8105469 C 8.0609531 7.9965469 8.0217656 8.1924844 8.0097656 8.3964844 L 10.673828 8.3964844 C 10.661828 7.9104844 10.548031 7.5317188 10.332031 7.2617188 C 10.116031 6.9917187 9.8100626 6.8574219 9.4140625 6.8574219 z M 13.296875 8.7539062 C 13.690775 8.7539062 13.986647 8.851875 14.185547 9.046875 C 14.384447 9.237975 14.484375 9.5044563 14.484375 9.8476562 C 14.484375 9.9997563 14.456944 10.14475 14.402344 10.28125 C 14.347744 10.41385 14.273288 10.543169 14.179688 10.667969 C 14.089988 10.792769 13.986141 10.912297 13.869141 11.029297 C 13.752141 11.146297 13.632619 11.263859 13.511719 11.380859 C 13.410319 11.478359 13.312344 11.578288 13.214844 11.679688 C 13.121244 11.777188 13.035031 11.877116 12.957031 11.978516 C 12.882931 12.076016 12.822191 12.172031 12.775391 12.269531 C 12.732491 12.363131 12.710938 12.457181 12.710938 12.550781 L 12.710938 12.5625 L 14.623047 12.5625 L 14.623047 12.896484 L 12.289062 12.896484 C 12.289062 12.888684 12.28707 12.874969 12.283203 12.855469 L 12.283203 12.755859 C 12.283203 12.572559 12.316512 12.402094 12.382812 12.246094 C 12.449113 12.086194 12.533366 11.937275 12.634766 11.796875 C 12.740066 11.656475 12.855669 11.525197 12.980469 11.404297 C 13.109169 11.283397 13.232609 11.165834 13.349609 11.052734 C 13.447109 10.959134 13.537247 10.869003 13.623047 10.783203 C 13.712747 10.693503 13.791122 10.603366 13.857422 10.509766 C 13.923722 10.416166 13.976625 10.316237 14.015625 10.210938 C 14.054625 10.105638 14.074219 9.9900344 14.074219 9.8652344 C 14.074219 9.5922344 13.999763 9.39825 13.851562 9.28125 C 13.707262 9.16035 13.525034 9.0996094 13.302734 9.0996094 C 13.177934 9.0996094 13.06625 9.1152844 12.96875 9.1464844 C 12.87125 9.1776844 12.785037 9.2149125 12.710938 9.2578125 C 12.640737 9.2968125 12.579997 9.3379594 12.529297 9.3808594 C 12.478597 9.4237594 12.441369 9.4570688 12.417969 9.4804688 L 12.21875 9.2167969 C 12.24215 9.1894969 12.283297 9.1503094 12.341797 9.0996094 C 12.404197 9.0450094 12.480612 8.9921062 12.570312 8.9414062 C 12.663913 8.8907063 12.771678 8.8476 12.892578 8.8125 C 13.013478 8.7735 13.148675 8.7539063 13.296875 8.7539062 z "
     id="path4" />
</svg>

<svg xmlns="http://www.w3.org/2000/svg" viewBox="0 0 16 16">
 <path d="m 1.6 0 c -0.886 0 -1.6 0.713 -1.6 1.6 l 0 12.801 c 0 0.886 0.713 1.6 1.6 1.6 l 12.801 0 c 0.886 0 1.6 -0.713 1.6 -1.6 l 0 -12.801 c 0 -0.886 -0.713 -1.6 -1.6 -1.6 l -12.801 0 z m 1.297 4.805 c 0.504 0 0.967 0.067 1.387 0.199 c 0.42 0.132 0.78 0.33 1.08 0.594 c 0.306 0.264 0.543 0.594 0.711 0.99 c 0.168 0.396 0.252 0.857 0.252 1.385 c 0 0.534 -0.084 0.999 -0.252 1.395 c -0.168 0.396 -0.405 0.726 -0.711 0.99 c -0.3 0.264 -0.66 0.462 -1.08 0.594 c -0.42 0.132 -0.883 0.199 -1.387 0.199 c -0.252 0 -0.515 -0.015 -0.791 -0.045 c -0.276 -0.024 -0.519 -0.063 -0.729 -0.117 l 0 -6.01 c 0.21 -0.06 0.453 -0.103 0.729 -0.127 c 0.276 -0.03 0.539 -0.045 0.791 -0.045 z m 0.072 0.531 c -0.324 0 -0.561 0.009 -0.711 0.027 c -0.144 0.018 -0.234 0.029 -0.27 0.035 l 0 5.158 c 0.036 0.006 0.126 0.017 0.27 0.035 c 0.15 0.018 0.387 0.027 0.711 0.027 c 0.45 0 0.844 -0.06 1.18 -0.18 c 0.336 -0.126 0.618 -0.303 0.846 -0.531 c 0.228 -0.228 0.4 -0.504 0.514 -0.828 c 0.114 -0.33 0.17 -0.699 0.17 -1.107 c 0 -0.408 -0.056 -0.774 -0.17 -1.098 c -0.114 -0.324 -0.286 -0.6 -0.514 -0.828 c -0.228 -0.228 -0.51 -0.401 -0.846 -0.521 c -0.336 -0.126 -0.73 -0.189 -1.18 -0.189 z m 6.438 1 c 0.57 0 1.021 0.185 1.357 0.557 c 0.342 0.372 0.514 0.945 0.514 1.719 c 0 0.048 -0.004 0.097 -0.01 0.145 c 0 0.048 -0.002 0.093 -0.008 0.135 l -3.268 0 c 0.018 0.57 0.16 1.01 0.424 1.314 c 0.264 0.306 0.684 0.459 1.26 0.459 c 0.318 0 0.57 -0.03 0.756 -0.09 c 0.186 -0.06 0.32 -0.11 0.404 -0.152 l 0.109 0.504 c -0.084 0.048 -0.245 0.104 -0.479 0.17 c -0.228 0.066 -0.497 0.1 -0.809 0.1 c -0.408 0 -0.757 -0.06 -1.045 -0.18 c -0.288 -0.12 -0.525 -0.288 -0.711 -0.504 c -0.186 -0.216 -0.32 -0.472 -0.404 -0.766 c -0.084 -0.3 -0.127 -0.626 -0.127 -0.98 c 0 -0.408 0.058 -0.762 0.172 -1.063 c 0.12 -0.306 0.273 -0.562 0.459 -0.766 c 0.192 -0.204 0.408 -0.353 0.648 -0.449 c 0.246 -0.102 0.498 -0.152 0.756 -0.152 z m 0.008 0.521 c -0.21 0 -0.398 0.041 -0.566 0.125 c -0.162 0.084 -0.306 0.198 -0.432 0.342 c -0.12 0.138 -0.217 0.3 -0.289 0.486 c -0.066 0.186 -0.105 0.382 -0.117 0.586 l 2.664 0 c -0.012 -0.486 -0.126 -0.865 -0.342 -1.135 c -0.216 -0.27 -0.522 -0.404 -0.918 -0.404 z m 3.883 1.896 c 0.394 0 0.69 0.098 0.889 0.293 c 0.199 0.191 0.299 0.458 0.299 0.801 c 0 0.152 -0.027 0.297 -0.082 0.434 c -0.055 0.133 -0.129 0.262 -0.223 0.387 c -0.09 0.125 -0.194 0.244 -0.311 0.361 c -0.117 0.117 -0.237 0.235 -0.357 0.352 c -0.101 0.098 -0.199 0.197 -0.297 0.299 c -0.094 0.098 -0.18 0.197 -0.258 0.299 c -0.074 0.097 -0.135 0.194 -0.182 0.291 c -0.043 0.094 -0.064 0.188 -0.064 0.281 l 0 0.012 l 1.912 0 l 0 0.334 l -2.334 0 c 0 -0.008 -0.002 -0.022 -0.006 -0.041 l 0 -0.1 c 0 -0.183 0.033 -0.354 0.1 -0.51 c 0.066 -0.16 0.151 -0.309 0.252 -0.449 c 0.105 -0.14 0.221 -0.272 0.346 -0.393 c 0.129 -0.121 0.252 -0.238 0.369 -0.352 c 0.098 -0.094 0.188 -0.184 0.273 -0.27 c 0.09 -0.09 0.168 -0.18 0.234 -0.273 c 0.066 -0.094 0.119 -0.194 0.158 -0.299 c 0.039 -0.105 0.059 -0.221 0.059 -0.346 c 0 -0.273 -0.074 -0.467 -0.223 -0.584 c -0.144 -0.121 -0.327 -0.182 -0.549 -0.182 c -0.125 0 -0.236 0.016 -0.334 0.047 c -0.098 0.031 -0.184 0.068 -0.258 0.111 c -0.07 0.039 -0.131 0.08 -0.182 0.123 c -0.051 0.043 -0.088 0.076 -0.111 0.1 l -0.199 -0.264 c 0.023 -0.027 0.065 -0.066 0.123 -0.117 c 0.062 -0.055 0.139 -0.108 0.229 -0.158 c 0.094 -0.051 0.201 -0.094 0.322 -0.129 c 0.121 -0.039 0.256 -0.059 0.404 -0.059 z" style="fill:#353535;fill-opacity:1"/>
</svg>
